inst/assets/svg/wi-night-alt-sprinkle.svg

<?xml version="1.0" encoding="UTF-8"?>
<svg xmlns="http://www.w3.org/2000/svg" xmlns:xlink="http://www.w3.org/1999/xlink" width="30pt" height="30pt" viewBox="0 0 30 30" version="1.1">
<g id="surface681">
<path style=" stroke:none;fill-rule:nonzero;fill:rgb(0%,0%,0%);fill-opacity:1;" d="M 4.109375 16.890625 C 4.109375 18.21875 4.570313 19.371094 5.5 20.320313 C 6.429688 21.28125 7.558594 21.789063 8.898438 21.859375 C 9.019531 21.859375 9.078125 21.800781 9.078125 21.679688 L 9.078125 20.351563 C 9.078125 20.230469 9.019531 20.171875 8.898438 20.171875 C 8.039063 20.128906 7.320313 19.789063 6.71875 19.148438 C 6.121094 18.511719 5.820313 17.761719 5.820313 16.890625 C 5.820313 16.058594 6.101563 15.339844 6.660156 14.71875 C 7.21875 14.109375 7.921875 13.75 8.761719 13.648438 L 9.28125 13.609375 C 9.410156 13.609375 9.480469 13.550781 9.480469 13.429688 L 9.550781 12.890625 C 9.660156 11.808594 10.109375 10.898438 10.921875 10.179688 C 11.730469 9.449219 12.679688 9.089844 13.769531 9.089844 C 14.859375 9.089844 15.808594 9.460938 16.628906 10.191406 C 17.449219 10.921875 17.910156 11.820313 18.03125 12.898438 L 18.101563 13.46875 C 18.101563 13.589844 18.160156 13.660156 18.28125 13.660156 L 19.898438 13.660156 C 20.789063 13.660156 21.550781 13.980469 22.199219 14.621094 C 22.851563 15.261719 23.171875 16.019531 23.171875 16.890625 C 23.171875 17.761719 22.871094 18.511719 22.269531 19.148438 C 21.671875 19.789063 20.941406 20.128906 20.089844 20.171875 C 19.96875 20.171875 19.898438 20.230469 19.898438 20.351563 L 19.898438 21.679688 C 19.898438 21.800781 19.960938 21.859375 20.089844 21.859375 C 20.96875 21.828125 21.769531 21.589844 22.5 21.140625 C 23.230469 20.691406 23.808594 20.089844 24.230469 19.339844 C 24.648438 18.589844 24.859375 17.769531 24.859375 16.898438 C 24.859375 16.03125 24.628906 15.21875 24.179688 14.449219 C 24.960938 13.710938 25.46875 12.851563 25.71875 11.871094 L 25.859375 11.140625 C 25.871094 11.128906 25.878906 11.109375 25.878906 11.070313 C 25.878906 11 25.828125 10.941406 25.71875 10.910156 L 25.148438 10.738281 C 24.578125 10.578125 24.089844 10.300781 23.691406 9.921875 C 23.28125 9.539063 22.988281 9.128906 22.820313 8.710938 C 22.648438 8.28125 22.558594 7.859375 22.558594 7.429688 C 22.558594 7.140625 22.601563 6.859375 22.671875 6.578125 L 22.800781 5.96875 C 22.820313 5.871094 22.78125 5.789063 22.671875 5.738281 L 21.871094 5.5 C 21.421875 5.398438 21 5.351563 20.601563 5.351563 C 20.238281 5.351563 19.871094 5.390625 19.480469 5.480469 C 19.101563 5.570313 18.699219 5.699219 18.289063 5.878906 C 17.878906 6.058594 17.480469 6.320313 17.089844 6.671875 C 16.699219 7.019531 16.371094 7.410156 16.089844 7.871094 C 15.28125 7.558594 14.5 7.410156 13.761719 7.410156 C 12.351563 7.410156 11.089844 7.851563 10 8.730469 C 8.910156 9.609375 8.199219 10.730469 7.890625 12.089844 C 6.78125 12.351563 5.871094 12.929688 5.160156 13.828125 C 4.46875 14.710938 4.109375 15.738281 4.109375 16.890625 Z M 10.050781 17.769531 C 10.050781 18.148438 10.191406 18.480469 10.46875 18.75 C 10.75 19.019531 11.089844 19.148438 11.488281 19.148438 C 11.890625 19.148438 12.21875 19.019531 12.488281 18.75 C 12.761719 18.480469 12.890625 18.160156 12.890625 17.769531 C 12.890625 17.511719 12.769531 17.171875 12.539063 16.75 C 12.308594 16.328125 12.089844 16 11.890625 15.769531 C 11.78125 15.648438 11.648438 15.511719 11.480469 15.339844 L 11.128906 15.75 C 10.859375 16.039063 10.609375 16.390625 10.378906 16.789063 C 10.148438 17.191406 10.050781 17.511719 10.050781 17.769531 Z M 13.039063 21.761719 C 13.039063 22.421875 13.269531 22.96875 13.71875 23.421875 C 14.179688 23.871094 14.730469 24.089844 15.371094 24.089844 C 16.03125 24.089844 16.578125 23.859375 17.03125 23.410156 C 17.480469 22.949219 17.710938 22.398438 17.710938 21.761719 C 17.710938 21.210938 17.441406 20.539063 16.910156 19.761719 C 16.46875 19.179688 16.039063 18.679688 15.628906 18.269531 C 15.550781 18.210938 15.460938 18.140625 15.371094 18.039063 L 15.140625 18.269531 C 14.75 18.628906 14.320313 19.128906 13.859375 19.75 C 13.621094 20.078125 13.429688 20.429688 13.269531 20.789063 C 13.109375 21.160156 13.039063 21.480469 13.039063 21.761719 Z M 14.511719 15.089844 C 14.511719 15.351563 14.609375 15.558594 14.800781 15.75 C 14.988281 15.941406 15.21875 16.019531 15.5 16.019531 C 15.761719 16.019531 15.96875 15.929688 16.160156 15.75 C 16.339844 15.570313 16.429688 15.351563 16.429688 15.089844 C 16.429688 14.660156 16.121094 14.121094 15.5 13.46875 L 15.25 13.738281 C 15.070313 13.941406 14.898438 14.171875 14.75 14.441406 C 14.578125 14.710938 14.511719 14.929688 14.511719 15.089844 Z M 17.558594 8.769531 C 17.910156 8.199219 18.359375 7.769531 18.898438 7.480469 C 19.441406 7.191406 20.019531 7.039063 20.621094 7.039063 C 20.738281 7.039063 20.828125 7.050781 20.890625 7.058594 L 20.890625 7.359375 C 20.890625 8.320313 21.148438 9.230469 21.679688 10.101563 C 22.210938 10.96875 22.929688 11.621094 23.859375 12.070313 C 23.699219 12.449219 23.449219 12.789063 23.109375 13.101563 C 22.179688 12.339844 21.121094 11.960938 19.898438 11.960938 L 19.570313 11.960938 C 19.269531 10.648438 18.601563 9.589844 17.558594 8.769531 Z M 17.558594 8.769531 "/>
</g>
</svg>

<?xml version="1.0" encoding="utf-8"?>
<!-- Generator: Adobe Illustrator 22.0.1, SVG Export Plug-In . SVG Version: 6.00 Build 0)  -->
<svg version="1.1" id="Layer_1" xmlns="http://www.w3.org/2000/svg" xmlns:xlink="http://www.w3.org/1999/xlink" x="0px" y="0px"
	 viewBox="0 0 30 30" style="enable-background:new 0 0 30 30;" xml:space="preserve">
<path d="M4.11,16.89c0,1.33,0.46,2.48,1.39,3.43c0.93,0.96,2.06,1.47,3.4,1.54c0.12,0,0.18-0.06,0.18-0.18v-1.33
	c0-0.12-0.06-0.18-0.18-0.18c-0.86-0.04-1.58-0.38-2.18-1.02c-0.6-0.64-0.9-1.39-0.9-2.26c0-0.83,0.28-1.55,0.84-2.17
	c0.56-0.61,1.26-0.97,2.1-1.07l0.52-0.04c0.13,0,0.2-0.06,0.2-0.18l0.07-0.54c0.11-1.08,0.56-1.99,1.37-2.71
	c0.81-0.73,1.76-1.09,2.85-1.09c1.09,0,2.04,0.37,2.86,1.1c0.82,0.73,1.28,1.63,1.4,2.71l0.07,0.57c0,0.12,0.06,0.19,0.18,0.19h1.62
	c0.89,0,1.65,0.32,2.3,0.96s0.97,1.4,0.97,2.27c0,0.87-0.3,1.62-0.9,2.26c-0.6,0.64-1.33,0.98-2.18,1.02
	c-0.12,0-0.19,0.06-0.19,0.18v1.33c0,0.12,0.06,0.18,0.19,0.18c0.88-0.03,1.68-0.27,2.41-0.72s1.31-1.05,1.73-1.8
	s0.63-1.57,0.63-2.44c0-0.87-0.23-1.68-0.68-2.45c0.78-0.74,1.29-1.6,1.54-2.58l0.14-0.73c0.01-0.01,0.02-0.03,0.02-0.07
	c0-0.07-0.05-0.13-0.16-0.16l-0.57-0.17c-0.57-0.16-1.06-0.44-1.46-0.82c-0.41-0.38-0.7-0.79-0.87-1.21
	c-0.17-0.43-0.26-0.85-0.26-1.28c0-0.29,0.04-0.57,0.11-0.85l0.13-0.61c0.02-0.1-0.02-0.18-0.13-0.23l-0.8-0.24
	c-0.45-0.1-0.87-0.15-1.27-0.15c-0.36,0-0.73,0.04-1.12,0.13c-0.38,0.09-0.78,0.22-1.19,0.4s-0.81,0.44-1.2,0.79s-0.72,0.74-1,1.2
	c-0.81-0.31-1.59-0.46-2.33-0.46c-1.41,0-2.67,0.44-3.76,1.32s-1.8,2-2.11,3.36c-1.11,0.26-2.02,0.84-2.73,1.74
	C4.47,14.71,4.11,15.74,4.11,16.89z M10.05,17.77c0,0.38,0.14,0.71,0.42,0.98c0.28,0.27,0.62,0.4,1.02,0.4c0.4,0,0.73-0.13,1-0.4
	c0.27-0.27,0.4-0.59,0.4-0.98c0-0.26-0.12-0.6-0.35-1.02c-0.23-0.42-0.45-0.75-0.65-0.98c-0.11-0.12-0.24-0.26-0.41-0.43l-0.35,0.41
	c-0.27,0.29-0.52,0.64-0.75,1.04S10.05,17.51,10.05,17.77z M13.04,21.76c0,0.66,0.23,1.21,0.68,1.66c0.46,0.45,1.01,0.67,1.65,0.67
	c0.66,0,1.21-0.23,1.66-0.68c0.45-0.46,0.68-1.01,0.68-1.65c0-0.55-0.27-1.22-0.8-2c-0.44-0.58-0.87-1.08-1.28-1.49
	c-0.08-0.06-0.17-0.13-0.26-0.23l-0.23,0.23c-0.39,0.36-0.82,0.86-1.28,1.48c-0.24,0.33-0.43,0.68-0.59,1.04
	C13.11,21.16,13.04,21.48,13.04,21.76z M14.51,15.09c0,0.26,0.1,0.47,0.29,0.66s0.42,0.27,0.7,0.27c0.26,0,0.47-0.09,0.66-0.27
	c0.18-0.18,0.27-0.4,0.27-0.66c0-0.43-0.31-0.97-0.93-1.62l-0.25,0.27c-0.18,0.2-0.35,0.43-0.5,0.7
	C14.58,14.71,14.51,14.93,14.51,15.09z M17.56,8.77c0.35-0.57,0.8-1,1.34-1.29c0.54-0.29,1.12-0.44,1.72-0.44
	c0.12,0,0.21,0.01,0.27,0.02v0.3c0,0.96,0.26,1.87,0.79,2.74s1.25,1.52,2.18,1.97c-0.16,0.38-0.41,0.72-0.75,1.03
	c-0.93-0.76-1.99-1.14-3.21-1.14h-0.33C19.27,10.65,18.6,9.59,17.56,8.77z"/>
</svg>
